X:1
T:St. Matthias, 88.88.88
T:William Henry Monk, 1861
T:St. Matthias, 88.88.88
T:Public Domain
C:William Henry Monk, 1861
Z:Public Domain
%%score ( 1 2 ) ( 3 4 )
L:1/8
M:4/4
K:F
V:1 treble 
V:2 treble 
V:3 bass 
V:4 bass 
V:1
 [FA]2 | [EG]2 F2 [FB]2 [FA]2 | F2 z A F2 [FA]2 | [CG]2 F2 [EG]2 [Gc]2 | %4
 [GA]2 [F=B]2 [Ec]2- [Ec]2 | (EF) [Gc]2 [EB]2 [FA]2 | (^CD) [EA]2 [CG]2 [DF]2 | %7
 (GA) [DB]2 D2 [CE]2 | (CF) F2 z G F2- x | F2 F2 [EG]2 [FA]2 | [FB]2 [FA]2 B2 z _E x | %11
 [Dd]2 [Fd]2 (FD)(AG) | F2 [FB]2 [FA]4- x2 | [FA]2 [EG]2 F4 |] %14
V:2
 x2 | x2 F2 x4 | G3 E2 x3 | x2 F2 x4 | x8 | c2 x6 | A2 x6 | D2 x6 | F2 G3 (E2 F2-) | F2 F2 x4 | %10
 x4 F3 c2 | x4 c2 E2 | x10 | x4 F4 |] %14
V:3
 [F,C]2 | [C,B,]2 [F,A,]2 [D,B,]2 [C,C]2 | [B,,D]2 [C,C]2 [F,A,]2 [F,C]2 | E,2 z =B, [C,C]2 (CE) | %4
 [F,E]2 [G,D]2 [C,C]2- [C,C]2 | (C,D,) [E,C]2 [G,C]2 [F,C]2 | (A,,=B,,) [^C,A,]2 [E,A,]2 [D,A,]2 | %7
 ([B,,G,][A,,^F,]) [G,,G,]2 [B,,G,]2 [C,G,]2 | [A,,F,]2 [B,,D]2 [C,B,]2 [F,A,]2- x | %9
 [F,A,]2 [F,A,]2 [C,C]2 [F,C]2 | [D,B,]2 (F,_E,) [D,B,]2 [C,A,]2 x | %11
 [B,,B,]2 (B,A,) [C,G,]2 [C,B,]2 | [D,A,]2 [B,,D]2 C2 A,2 x2 | B,2 [C,B,]2 [F,A,]4 |] %14
V:4
 x2 | x8 | x8 | C3 (D,2 x C,2) | x8 | C2 x6 | =B,2 x6 | x8 | x9 | x8 | x2 C2 x5 | x2 B,,2 x4 | %12
 x4 C,6 | x8 |] %14

